Adwaita++/places/16/folder-script.svg

<svg height="16" width="16" xmlns="http://www.w3.org/2000/svg">
  <path d="m1 1v14h14v-14zm4 2h1v1h.5c.65 0 1.2.42 1.41 1h-1.41-.5v1h.5c.83 0 1.5.67 1.5 1.5s-.67 1.5-1.5 1.5h-.5v1h-1v-1h-.5c-.65 0-1.2-.42-1.41-1h1.41.5v-1h-.5c-.83 0-1.5-.67-1.5-1.5s.67-1.5 1.5-1.5h.5zm-.5 2c-.28 0-.5.22-.5.5s.22.5.5.5h.5v-1zm1.5 2v1h.5c.28.01.5-.22.5-.5s-.22-.5-.5-.5zm3 2h4v1h-4z" fill="#474747"/>
</svg>

<svg xmlns="http://www.w3.org/2000/svg" width="16" height="16" version="1.1">
 <defs>
  <style id="current-color-scheme" type="text/css">
   .ColorScheme-Text { color:#474747; } .ColorScheme-Highlight { color:#4285f4; }
  </style>
 </defs>
 <path style="fill:currentColor" class="ColorScheme-Text" d="M 1,1 V 15 H 15 V 1 Z M 5,3 H 6 V 4 H 6.5 C 7.15,4 7.7,4.42 7.91,5 H 6.5 6 V 6 H 6.5 C 7.33,6 8,6.67 8,7.5 8,8.33 7.33,9 6.5,9 H 6 V 10 H 5 V 9 H 4.5 C 3.85,9 3.3,8.58 3.09,8 H 4.5 5 V 7 H 4.5 C 3.67,7 3,6.33 3,5.5 3,4.67 3.67,4 4.5,4 H 5 Z M 4.5,5 C 4.22,5 4,5.22 4,5.5 4,5.78 4.22,6 4.5,6 H 5 V 5 Z M 6,7 V 8 H 6.5 C 6.78,8.01 7,7.78 7,7.5 7,7.22 6.78,7 6.5,7 Z M 9,9 H 13 V 10 H 9 Z"/>
</svg>
